X:3
T:RVW2/2/3 Died For Love
C:Mr. Broomfield, Herongate, Essex, 22 February 1904
L:1/8
Q:1/4=69
M:6/8
I:linebreak $
K:F
"^(Adagio " F | ABc dcB | GFG F2 F | G2 G GAB | dcd c2 c |$ d2 e fed | c2 f A2 F | ABc dcA | 
GFG F2 |] 



